X:355
T:Tom Sullivan's
R:polka 32
M:2/4
L:1/8
K:D
"D"FG AB|"D"BA AF/G/|"D"Ad "A"dc|"G     A"d2 "D"d>e|
"D"fd ed|"D"c/B/A AA/B/|"D"c/B/A "A"GE|1"G     A"D2 "D"D2:|2"G     A"D2 "D"d>e||
"D"fd "A"ed|"D"c/B/A A>e|"D"fd "A"ec|"G       A"d2 "D"d>e|
"D"fd ed|"D"c/B/A "G"A"A"A/B/|"D"c/B/A "A"GE|"G      A"D2 "D"d>e|350
T:Touch the String GHW070
R:polka 32
M:2/4
L:1/8
S:George H.Watson, Swanton Abbott, Norfolk1850-1880
O:England
A:Norfolk
Z:Taz Tarry
K:D
d|AFFD|CEEG|FDFA|d2cB|AFFD|CEEG|FDAF|D2D F|!
BcdB|ceAA|BcdB|{cd}e2 AA|BcdB|cdec|{de}fdc>B|d2c>B|!
|AFFD|CEEG|FDFA|d2cB|AFFD|CEEG|FDAF|D2D|!

